X:7
T:7 Years in Tarbert
C:Composed by Lorne MacDougall
L:1/8
M:9/8
I:linebreak $
K:D
|:{g} B=cB- B{g}B{G}B{g} BcB |{g} e=fe- e{g}e{A}e{g} efe |${g} B=cB{g} BcB{g} edB |
[M:12/8]{g} GA{G}A{g} =cBG{g} GA{G}A{g} dcA ::$[M:9/8]{g} B=cB- B{g}B{G}B{g} Bcd |
{a} gag- gag{a} gag |${a} fe{g}d- d{g}=fe{g} d=cB |[M:12/8]{g} =cB{G}A- A{g}cB{g} GA{G}A{g} dcA :|
